;FLAVOR:RepRap
;TIME:557
;Filament used: 0.126425m
;Layer height: 0.1
;Generated with Cura_SteamEngine 3.4.1
T0
M190 S60
M104 S200
M109 S200
M82 ;absolute extrusion mode
G21        ;metric values
G90        ;absolute positioning
M82        ;set extruder to absolute mode
M107       ;start with the fan off
G28 X0 Y0  ;move X/Y to min endstops
G28 Z0     ;move Z to min endstops
G1 Z15.0 F3600 ;move the platform down 15mm
G92 E0                  ;zero the extruded length
G1 F200 E6              ;extrude 6mm of feed stock
G92 E0                  ;zero the extruded length again
G1 F3600
M117 Printing...
M83 ;relative extrusion mode
G1 F1500 E-6.5
;LAYER_COUNT:24
;LAYER:0
M107
G0 F3600 X89.182 Y118.116 Z0.3
;TYPE:SKIRT
G1 F1500 E6.5
G1 F1800 X90.132 Y117.425 E0.0221
G1 X90.922 Y116.92 E0.01764
G1 X91.948 Y116.348 E0.0221
G1 X92.789 Y115.943 E0.01756
G1 X93.875 Y115.498 E0.02208
G1 X94.986 Y115.138 E0.02197
G1 X96.694 Y114.722 E0.03307
G1 X97.842 Y114.531 E0.02189
G1 X99.01 Y114.426 E0.02206
G1 X99.94 Y114.398 E0.0175
G1 X101.114 Y114.433 E0.02209
G1 X102.271 Y114.555 E0.02188
G1 X104.001 Y114.868 E0.03307
G1 X105.134 Y115.162 E0.02202
G1 X106.246 Y115.542 E0.0221
G1 X107.108 Y115.895 E0.01752
G1 X108.165 Y116.404 E0.02207
G1 X108.979 Y116.858 E0.01753
G1 X109.967 Y117.489 E0.02205
G1 X110.723 Y118.038 E0.01757
G1 X111.629 Y118.783 E0.02206
G1 X112.316 Y119.421 E0.01764
G1 X113.125 Y120.268 E0.02203
G1 X113.722 Y120.972 E0.01736
G1 X114.427 Y121.911 E0.02209
G1 X114.946 Y122.698 E0.01773
G1 X115.533 Y123.716 E0.0221
G1 X115.95 Y124.551 E0.01756
G1 X116.41 Y125.629 E0.02205
G1 X116.783 Y126.721 E0.02171
G1 X117.227 Y128.423 E0.03309
G1 X117.438 Y129.58 E0.02212
G1 X117.56 Y130.746 E0.02205
G1 X117.601 Y131.671 E0.01742
G1 X117.584 Y132.847 E0.02212
G1 X117.48 Y134.012 E0.022
G1 X117.192 Y135.746 E0.03306
G1 X116.914 Y136.881 E0.02198
G1 X116.551 Y137.997 E0.02208
G1 X116.212 Y138.861 E0.01746
G1 X115.719 Y139.926 E0.02208
G1 X115.275 Y140.751 E0.01762
G1 X114.658 Y141.749 E0.02207
G1 X113.975 Y142.689 E0.02186
G1 X112.838 Y144.031 E0.03309
G1 X112.298 Y144.607 E0.01485
G1 X111.839 Y145.015 E0.01155
G1 X110.481 Y146.131 E0.03306
G1 X109.531 Y146.8 E0.02186
G1 X108.524 Y147.402 E0.02207
G1 X107.481 Y147.924 E0.02194
G1 X105.854 Y148.591 E0.03308
G1 X104.971 Y148.893 E0.01755
G1 X104.406 Y149.049 E0.01103
G1 X103.491 Y149.243 E0.01759
G1 X101.75 Y149.505 E0.03312
G1 X100.589 Y149.592 E0.0219
G1 X99.415 Y149.592 E0.02208
G1 X98.249 Y149.504 E0.022
G1 X96.509 Y149.241 E0.0331
G1 X95.383 Y148.985 E0.02172
G1 X94.264 Y148.641 E0.02202
G1 X93.167 Y148.21 E0.02217
G1 X91.583 Y147.446 E0.03308
G1 X90.587 Y146.872 E0.02162
G1 X89.616 Y146.212 E0.02208
G1 X88.693 Y145.476 E0.02221
G1 X87.403 Y144.278 E0.03312
G1 X86.614 Y143.428 E0.02182
G1 X85.883 Y142.512 E0.02204
G1 X85.346 Y141.749 E0.01755
G1 X84.729 Y140.751 E0.02207
G1 X84.282 Y139.92 E0.01775
G1 X83.79 Y138.855 E0.02207
G1 X83.387 Y137.78 E0.0216
G1 X82.892 Y136.093 E0.03307
G1 X82.708 Y135.325 E0.01486
G1 X82.618 Y134.704 E0.0118
G1 X82.436 Y132.955 E0.03308
G1 X82.402 Y131.803 E0.02168
G1 X82.454 Y130.63 E0.02209
G1 X82.593 Y129.467 E0.02203
G1 X82.933 Y127.741 E0.03309
G1 X83.245 Y126.614 E0.022
G1 X83.642 Y125.508 E0.0221
G1 X84.004 Y124.66 E0.01734
G1 X84.527 Y123.612 E0.02203
G1 X84.999 Y122.794 E0.01776
G1 X85.646 Y121.815 E0.02207
G1 X86.201 Y121.075 E0.0174
G1 X86.959 Y120.18 E0.02206
G1 X87.606 Y119.503 E0.01762
G1 X88.465 Y118.706 E0.02204
G1 X89.182 Y118.116 E0.01747
G0 F3600 X89.417 Y118.44
G1 F1800 X90.367 Y117.749 E0.0221
G1 X91.117 Y117.27 E0.01674
G1 X92.143 Y116.698 E0.0221
G1 X92.94 Y116.314 E0.01664
G1 X94.026 Y115.869 E0.02208
G1 X95.081 Y115.526 E0.02087
G1 X96.789 Y115.11 E0.03307
G1 X97.877 Y114.93 E0.02074
G1 X99.045 Y114.825 E0.02206
G1 X99.929 Y114.798 E0.01664
G1 X101.103 Y114.833 E0.02209
G1 X102.199 Y114.948 E0.02073
G1 X103.929 Y115.261 E0.03307
G1 X105.005 Y115.541 E0.02091
G1 X106.117 Y115.921 E0.0221
G1 X106.935 Y116.256 E0.01663
G1 X107.992 Y116.765 E0.02207
G1 X108.764 Y117.195 E0.01662
G1 X109.752 Y117.826 E0.02205
G1 X110.469 Y118.347 E0.01667
G1 X111.375 Y119.092 E0.02206
G1 X112.026 Y119.697 E0.01672
G1 X112.835 Y120.544 E0.02203
G1 X113.402 Y121.212 E0.01648
G1 X114.107 Y122.151 E0.02209
G1 X114.6 Y122.898 E0.01684
G1 X115.187 Y123.916 E0.0221
G1 X115.582 Y124.708 E0.01665
G1 X116.042 Y125.786 E0.02205
G1 X116.396 Y126.822 E0.02059
G1 X116.84 Y128.524 E0.03309
G1 X117.04 Y129.622 E0.02099
G1 X117.162 Y130.788 E0.02205
G1 X117.201 Y131.665 E0.01651
G1 X117.184 Y132.841 E0.02212
G1 X117.085 Y133.946 E0.02087
G1 X116.797 Y135.68 E0.03306
G1 X116.534 Y136.757 E0.02085
G1 X116.171 Y137.873 E0.02208
G1 X115.849 Y138.693 E0.01657
G1 X115.356 Y139.758 E0.02208
G1 X114.935 Y140.54 E0.01671
G1 X114.318 Y141.538 E0.02207
G1 X113.67 Y142.431 E0.02075
G1 X112.533 Y143.773 E0.03309
G1 X112.006 Y144.333 E0.01446
G1 X111.585 Y144.706 E0.01058
G1 X110.227 Y145.822 E0.03306
G1 X109.326 Y146.457 E0.02073
G1 X108.319 Y147.059 E0.02207
G1 X107.329 Y147.554 E0.02082
G1 X105.702 Y148.221 E0.03308
G1 X104.864 Y148.507 E0.01666
G1 X104.299 Y148.663 E0.01103
G1 X103.431 Y148.848 E0.01669
G1 X101.69 Y149.11 E0.03312
G1 X100.589 Y149.192 E0.02077
G1 X99.415 Y149.192 E0.02208
G1 X98.309 Y149.109 E0.02086
G1 X96.569 Y148.846 E0.0331
G1 X95.501 Y148.602 E0.02061
G1 X94.382 Y148.258 E0.02202
G1 X93.341 Y147.85 E0.02103
G1 X91.757 Y147.086 E0.03308
G1 X90.812 Y146.541 E0.02052
G1 X89.841 Y145.881 E0.02208
G1 X88.965 Y145.183 E0.02107
G1 X87.675 Y143.985 E0.03312
G1 X86.927 Y143.179 E0.02068
G1 X86.196 Y142.263 E0.02204
G1 X85.686 Y141.538 E0.01667
G1 X85.069 Y140.54 E0.02207
G1 X84.645 Y139.752 E0.01683
G1 X84.153 Y138.687 E0.02207
G1 X83.77 Y137.667 E0.02049
G1 X83.275 Y135.98 E0.03307
G1 X83.097 Y135.232 E0.01446
G1 X83.016 Y134.663 E0.01081
G1 X82.834 Y132.914 E0.03308
G1 X82.801 Y131.82 E0.02059
G1 X82.853 Y130.647 E0.02209
G1 X82.986 Y129.545 E0.02088
G1 X83.326 Y127.819 E0.03309
G1 X83.621 Y126.749 E0.02088
G1 X84.018 Y125.643 E0.0221
G1 X84.362 Y124.839 E0.01645
G1 X84.885 Y123.791 E0.02203
G1 X85.332 Y123.015 E0.01685
G1 X85.979 Y122.036 E0.02207
G1 X86.506 Y121.333 E0.01653
G1 X87.264 Y120.438 E0.02206
G1 X87.878 Y119.796 E0.01671
G1 X88.737 Y118.999 E0.02204
G1 X89.417 Y118.44 E0.01656
G0 F3600 X89.652 Y118.763
G1 F1800 X90.602 Y118.072 E0.0221
G1 X91.311 Y117.619 E0.01583
G1 X92.337 Y117.047 E0.0221
G1 X93.092 Y116.684 E0.01576
G1 X94.178 Y116.239 E0.02208
G1 X95.176 Y115.915 E0.01974
G1 X96.884 Y115.499 E0.03307
G1 X97.913 Y115.328 E0.01962
G1 X99.081 Y115.223 E0.02206
G1 X99.917 Y115.198 E0.01573
G1 X101.091 Y115.233 E0.02209
G1 X102.128 Y115.342 E0.01961
G1 X103.858 Y115.655 E0.03307
G1 X104.876 Y115.919 E0.01978
G1 X105.988 Y116.299 E0.0221
G1 X106.761 Y116.616 E0.01572
G1 X107.818 Y117.125 E0.02207
G1 X108.549 Y117.533 E0.01575
G1 X109.537 Y118.164 E0.02205
G1 X110.215 Y118.656 E0.01576
G1 X111.121 Y119.401 E0.02206
G1 X111.737 Y119.973 E0.01581
G1 X112.546 Y120.82 E0.02203
G1 X113.082 Y121.452 E0.01559
G1 X113.787 Y122.391 E0.02209
G1 X114.253 Y123.097 E0.01591
G1 X114.84 Y124.115 E0.0221
G1 X115.214 Y124.865 E0.01576
G1 X115.674 Y125.943 E0.02205
G1 X116.009 Y126.923 E0.01948
G1 X116.453 Y128.625 E0.03309
G1 X116.642 Y129.664 E0.01986
G1 X116.764 Y130.83 E0.02205
G1 X116.801 Y131.659 E0.01561
G1 X116.784 Y132.835 E0.02212
G1 X116.69 Y133.881 E0.01976
G1 X116.402 Y135.615 E0.03306
G1 X116.154 Y136.633 E0.01971
G1 X115.791 Y137.749 E0.02208
G1 X115.486 Y138.525 E0.01568
G1 X114.993 Y139.59 E0.02208
G1 X114.595 Y140.33 E0.01581
G1 X113.978 Y141.328 E0.02207
G1 X113.365 Y142.172 E0.01962
G1 X112.228 Y143.514 E0.03309
G1 X111.714 Y144.058 E0.01408
G1 X111.331 Y144.397 E0.00962
G1 X109.973 Y145.513 E0.03306
G1 X109.121 Y146.113 E0.0196
G1 X108.114 Y146.715 E0.02207
G1 X107.177 Y147.184 E0.01971
G1 X105.55 Y147.851 E0.03308
G1 X104.758 Y148.122 E0.01575
G1 X104.193 Y148.278 E0.01103
G1 X103.372 Y148.452 E0.01579
G1 X101.631 Y148.714 E0.03312
G1 X100.589 Y148.792 E0.01966
G1 X99.415 Y148.792 E0.02208
G1 X98.369 Y148.713 E0.01973
G1 X96.629 Y148.45 E0.0331
G1 X95.618 Y148.22 E0.0195
G1 X94.499 Y147.876 E0.02202
G1 X93.515 Y147.49 E0.01988
G1 X91.931 Y146.726 E0.03308
G1 X91.037 Y146.21 E0.01942
G1 X90.066 Y145.55 E0.02208
G1 X89.238 Y144.89 E0.01992
G1 X87.948 Y143.692 E0.03312
G1 X87.24 Y142.929 E0.01958
G1 X86.509 Y142.013 E0.02204
G1 X86.026 Y141.328 E0.01577
G1 X85.409 Y140.33 E0.02207
G1 X85.008 Y139.585 E0.01591
G1 X84.516 Y138.52 E0.02207
G1 X84.154 Y137.555 E0.01939
G1 X83.659 Y135.868 E0.03307
G1 X83.487 Y135.14 E0.01407
G1 X83.414 Y134.622 E0.00984
G1 X83.232 Y132.873 E0.03308
G1 X83.201 Y131.838 E0.01948
G1 X83.253 Y130.665 E0.02209
G1 X83.378 Y129.622 E0.01976
G1 X83.718 Y127.896 E0.03309
G1 X83.998 Y126.884 E0.01975
G1 X84.395 Y125.778 E0.0221
G1 X84.72 Y125.017 E0.01557
G1 X85.243 Y123.969 E0.02203
G1 X85.666 Y123.236 E0.01592
G1 X86.313 Y122.257 E0.02207
G1 X86.811 Y121.592 E0.01563
G1 X87.569 Y120.697 E0.02206
G1 X88.15 Y120.09 E0.01581
G1 X89.009 Y119.293 E0.02204
G1 X89.652 Y118.763 E0.01567
G0 F3600 X89.888 Y119.087
G1 F1800 X90.838 Y118.396 E0.0221
G1 X91.506 Y117.968 E0.01492
G1 X92.532 Y117.396 E0.0221
G1 X93.244 Y117.054 E0.01486
G1 X94.33 Y116.609 E0.02208
G1 X95.27 Y116.303 E0.0186
G1 X96.978 Y115.887 E0.03307
G1 X97.949 Y115.727 E0.01851
G1 X99.117 Y115.622 E0.02206
G1 X99.905 Y115.598 E0.01483
G1 X101.079 Y115.633 E0.02209
G1 X102.057 Y115.735 E0.0185
G1 X103.787 Y116.048 E0.03307
G1 X104.746 Y116.298 E0.01864
G1 X105.858 Y116.678 E0.0221
G1 X106.588 Y116.977 E0.01484
G1 X107.645 Y117.486 E0.02207
G1 X108.333 Y117.87 E0.01482
G1 X109.321 Y118.501 E0.02205
G1 X109.961 Y118.965 E0.01487
G1 X110.867 Y119.71 E0.02206
G1 X111.448 Y120.249 E0.01491
G1 X112.257 Y121.096 E0.02203
G1 X112.762 Y121.692 E0.01469
G1 X113.467 Y122.631 E0.02209
G1 X113.907 Y123.297 E0.01501
G1 X114.494 Y124.315 E0.0221
G1 X114.846 Y125.022 E0.01486
G1 X115.306 Y126.1 E0.02205
G1 X115.622 Y127.024 E0.01837
G1 X116.066 Y128.726 E0.03309
G1 X116.244 Y129.705 E0.01872
G1 X116.366 Y130.871 E0.02205
G1 X116.401 Y131.653 E0.01472
G1 X116.384 Y132.829 E0.02212
G1 X116.296 Y133.815 E0.01862
G1 X116.008 Y135.549 E0.03306
G1 X115.773 Y136.509 E0.01859
G1 X115.41 Y137.625 E0.02208
G1 X115.123 Y138.357 E0.01479
G1 X114.63 Y139.422 E0.02208
G1 X114.255 Y140.12 E0.0149
G1 X113.638 Y141.118 E0.02207
G1 X113.06 Y141.913 E0.01849
G1 X111.923 Y143.255 E0.03309
G1 X111.423 Y143.783 E0.01368
G1 X111.077 Y144.088 E0.00868
G1 X109.719 Y145.204 E0.03306
G1 X108.916 Y145.77 E0.01848
G1 X107.909 Y146.372 E0.02207
G1 X107.026 Y146.814 E0.01857
G1 X105.399 Y147.481 E0.03308
G1 X104.652 Y147.736 E0.01485
G1 X104.087 Y147.892 E0.01103
G1 X103.312 Y148.057 E0.0149
G1 X101.571 Y148.319 E0.03312
G1 X100.589 Y148.392 E0.01852
G1 X99.415 Y148.392 E0.02208
G1 X98.429 Y148.318 E0.0186
G1 X96.689 Y148.055 E0.0331
G1 X95.736 Y147.838 E0.01839
G1 X94.617 Y147.494 E0.02202
G1 X93.689 Y147.13 E0.01875
G1 X92.105 Y146.366 E0.03308
G1 X91.262 Y145.879 E0.01831
G1 X90.291 Y145.219 E0.02208
G1 X89.51 Y144.597 E0.01878
G1 X88.22 Y143.399 E0.03312
G1 X87.552 Y142.68 E0.01846
G1 X86.821 Y141.764 E0.02204
G1 X86.366 Y141.118 E0.01486
G1 X85.749 Y140.12 E0.02207
G1 X85.371 Y139.417 E0.01501
G1 X84.879 Y138.352 E0.02207
G1 X84.538 Y137.442 E0.01828
G1 X84.043 Y135.755 E0.03307
G1 X83.877 Y135.048 E0.01366
G1 X83.811 Y134.58 E0.00889
G1 X83.629 Y132.831 E0.03308
G1 X83.6 Y131.856 E0.01835
G1 X83.652 Y130.683 E0.02209
G1 X83.77 Y129.699 E0.01864
G1 X84.11 Y127.973 E0.03309
G1 X84.374 Y127.019 E0.01862
G1 X84.771 Y125.913 E0.0221
G1 X85.078 Y125.196 E0.01467
G1 X85.601 Y124.148 E0.02203
G1 X86 Y123.456 E0.01503
G1 X86.647 Y122.477 E0.02207
G1 X87.117 Y121.851 E0.01472
G1 X87.875 Y120.956 E0.02206
G1 X88.422 Y120.383 E0.0149
G1 X89.281 Y119.586 E0.02204
G1 X89.888 Y119.087 E0.01478
G0 F3600 X90.123 Y119.41
G1 F1800 X91.073 Y118.719 E0.0221
G1 X91.701 Y118.318 E0.01402
G1 X92.727 Y117.746 E0.0221
G1 X93.395 Y117.424 E0.01395
G1 X94.481 Y116.979 E0.02208
G1 X95.365 Y116.692 E0.01748
G1 X97.073 Y116.276 E0.03307
G1 X97.985 Y116.125 E0.01739
G1 X99.153 Y116.02 E0.02206
G1 X99.893 Y115.998 E0.01393
G1 X101.067 Y116.033 E0.02209
G1 X101.986 Y116.129 E0.01738
G1 X103.716 Y116.442 E0.03307
G1 X104.617 Y116.676 E0.01751
G1 X105.729 Y117.056 E0.0221
G1 X106.414 Y117.337 E0.01393
G1 X107.471 Y117.846 E0.02207
G1 X108.118 Y118.207 E0.01394
G1 X109.106 Y118.838 E0.02205
G1 X109.707 Y119.274 E0.01397
G1 X110.613 Y120.019 E0.02206
G1 X111.158 Y120.526 E0.014
G1 X111.967 Y121.373 E0.02203
G1 X112.442 Y121.932 E0.0138
G1 X113.147 Y122.871 E0.02209
G1 X113.56 Y123.497 E0.01411
G1 X114.147 Y124.515 E0.0221
G1 X114.479 Y125.179 E0.01396
G1 X114.939 Y126.257 E0.02205
G1 X115.235 Y127.125 E0.01725
G1 X115.679 Y128.827 E0.03309
G1 X115.846 Y129.747 E0.01759
G1 X115.968 Y130.913 E0.02205
G1 X116.001 Y131.648 E0.01384
G1 X115.984 Y132.824 E0.02212
G1 X115.901 Y133.75 E0.01749
G1 X115.613 Y135.484 E0.03306
G1 X115.393 Y136.386 E0.01746
G1 X115.03 Y137.502 E0.02208
G1 X114.76 Y138.189 E0.01389
G1 X114.267 Y139.254 E0.02208
G1 X113.915 Y139.909 E0.01399
G1 X113.298 Y140.907 E0.02207
G1 X112.754 Y141.655 E0.0174
G1 X111.617 Y142.997 E0.03309
G1 X111.133 Y143.507 E0.01323
G1 X110.823 Y143.779 E0.00776
G1 X109.465 Y144.895 E0.03306
G1 X108.71 Y145.427 E0.01737
G1 X107.703 Y146.029 E0.02207
G1 X106.874 Y146.444 E0.01744
G1 X105.247 Y147.111 E0.03308
G1 X104.545 Y147.35 E0.01395
G1 X103.98 Y147.506 E0.01103
G1 X103.253 Y147.661 E0.01398
G1 X101.512 Y147.923 E0.03312
G1 X100.589 Y147.992 E0.01741
G1 X99.415 Y147.992 E0.02208
G1 X98.488 Y147.922 E0.01749
G1 X96.748 Y147.659 E0.0331
G1 X95.853 Y147.455 E0.01727
G1 X94.734 Y147.111 E0.02202
G1 X93.863 Y146.769 E0.0176
G1 X92.279 Y146.005 E0.03308
G1 X91.487 Y145.549 E0.01719
G1 X90.516 Y144.889 E0.02208
G1 X89.782 Y144.304 E0.01766
G1 X88.492 Y143.106 E0.03312
G1 X87.865 Y142.43 E0.01734
G1 X87.134 Y141.514 E0.02204
G1 X86.706 Y140.907 E0.01397
G1 X86.089 Y139.909 E0.02207
G1 X85.735 Y139.249 E0.01409
G1 X85.243 Y138.184 E0.02207
G1 X84.922 Y137.33 E0.01716
G1 X84.427 Y135.643 E0.03307
G1 X84.267 Y134.957 E0.01325
G1 X84.209 Y134.539 E0.00794
G1 X84.027 Y132.79 E0.03308
G1 X84 Y131.873 E0.01726
G1 X84.052 Y130.7 E0.02209
G1 X84.163 Y129.777 E0.01749
G1 X84.503 Y128.051 E0.03309
G1 X84.751 Y127.154 E0.01751
G1 X85.148 Y126.048 E0.0221
G1 X85.435 Y125.375 E0.01376
G1 X85.958 Y124.327 E0.02203
G1 X86.334 Y123.677 E0.01413
G1 X86.981 Y122.698 E0.02207
G1 X87.422 Y122.109 E0.01384
G1 X88.18 Y121.214 E0.02206
G1 X88.694 Y120.676 E0.014
G1 X89.553 Y119.879 E0.02204
G1 X90.123 Y119.41 E0.01388
G0 F3600 X90.358 Y119.734
G1 F1800 X91.308 Y119.043 E0.0221
G1 X91.896 Y118.667 E0.01313
G1 X92.922 Y118.095 E0.0221
G1 X93.547 Y117.794 E0.01305
G1 X94.633 Y117.349 E0.02208
G1 X95.459 Y117.081 E0.01633
G1 X97.167 Y116.665 E0.03307
G1 X98.021 Y116.523 E0.01628
G1 X99.189 Y116.418 E0.02206
G1 X99.881 Y116.398 E0.01302
G1 X101.055 Y116.433 E0.02209
G1 X101.915 Y116.523 E0.01627
G1 X103.645 Y116.836 E0.03307
G1 X104.488 Y117.055 E0.01638
G1 X105.6 Y117.435 E0.0221
G1 X106.24 Y117.697 E0.01301
G1 X107.297 Y118.206 E0.02207
G1 X107.903 Y118.544 E0.01305
G1 X108.891 Y119.175 E0.02205
G1 X109.453 Y119.583 E0.01306
G1 X110.359 Y120.328 E0.02206
G1 X110.869 Y120.802 E0.0131
G1 X111.678 Y121.649 E0.02203
G1 X112.122 Y122.173 E0.01292
G1 X112.827 Y123.112 E0.02209
G1 X113.214 Y123.697 E0.01319
G1 X113.801 Y124.715 E0.0221
G1 X114.111 Y125.336 E0.01306
G1 X114.571 Y126.414 E0.02205
G1 X114.848 Y127.226 E0.01614
G1 X115.292 Y128.928 E0.03309
G1 X115.449 Y129.788 E0.01644
G1 X115.571 Y130.954 E0.02205
G1 X115.601 Y131.642 E0.01295
G1 X115.584 Y132.818 E0.02212
G1 X115.507 Y133.684 E0.01635
G1 X115.219 Y135.418 E0.03306
G1 X115.013 Y136.262 E0.01634
G1 X114.65 Y137.378 E0.02208
G1 X114.397 Y138.02 E0.01298
G1 X113.904 Y139.085 E0.02208
G1 X113.574 Y139.699 E0.01311
G1 X112.957 Y140.697 E0.02207
G1 X112.449 Y141.396 E0.01625
G1 X111.312 Y142.738 E0.03309
G1 X110.842 Y143.231 E0.01281
G1 X110.569 Y143.47 E0.00683
