;FLAVOR:RepRap
;TIME:2584
;Filament used: 0.566096m
;Layer height: 0.1
;Generated with Cura_SteamEngine 3.4.1
T0
M190 S60
M104 S200
M109 S200
M82 ;absolute extrusion mode
G21        ;metric values
G90        ;absolute positioning
M82        ;set extruder to absolute mode
M107       ;start with the fan off
G28 X0 Y0  ;move X/Y to min endstops
G28 Z0     ;move Z to min endstops
G1 Z15.0 F3600 ;move the platform down 15mm
G92 E0                  ;zero the extruded length
G1 F200 E6              ;extrude 6mm of feed stock
G92 E0                  ;zero the extruded length again
G1 F3600
M117 Printing...
M83 ;relative extrusion mode
G1 F1500 E-6.5
;LAYER_COUNT:49
;LAYER:0
M107
G0 F3600 X90.73 Y90.924 Z0.3
;TYPE:SKIRT
G1 F1500 E6.5
G1 F1800 X92.424 Y89.353 E0.04346
G1 X93.142 Y88.763 E0.01748
G1 X95.013 Y87.403 E0.04351
G1 X95.802 Y86.898 E0.01762
G1 X97.821 Y85.773 E0.04348
G1 X98.657 Y85.371 E0.01745
G1 X100.797 Y84.493 E0.04351
G1 X101.682 Y84.19 E0.0176
G1 X103.909 Y83.575 E0.04346
G1 X104.597 Y83.419 E0.01327
G1 X105.736 Y83.213 E0.02177
G1 X106.425 Y83.119 E0.01308
G1 X108.727 Y82.912 E0.04348
G1 X109.659 Y82.884 E0.01754
G1 X111.971 Y82.953 E0.04351
G1 X112.902 Y83.037 E0.01758
G1 X115.188 Y83.382 E0.04349
G1 X115.874 Y83.518 E0.01316
G1 X116.996 Y83.792 E0.02173
G1 X117.665 Y83.987 E0.01311
G1 X119.854 Y84.734 E0.04351
G1 X120.72 Y85.089 E0.01761
G1 X122.804 Y86.093 E0.04351
G1 X123.618 Y86.547 E0.01753
G1 X125.564 Y87.79 E0.04344
G1 X126.316 Y88.336 E0.01748
G1 X128.102 Y89.803 E0.04348
G1 X128.793 Y90.444 E0.01773
G1 X130.389 Y92.116 E0.04348
G1 X130.986 Y92.821 E0.01738
G1 X132.374 Y94.671 E0.04351
G1 X132.891 Y95.454 E0.01765
G1 X134.046 Y97.456 E0.04348
G1 X134.461 Y98.286 E0.01746
G1 X135.37 Y100.411 E0.04348
G1 X135.685 Y101.289 E0.01755
G1 X136.334 Y103.508 E0.04349
G1 X136.501 Y104.193 E0.01326
G1 X136.724 Y105.327 E0.02174
G1 X136.828 Y106.015 E0.01309
G1 X137.07 Y108.314 E0.04348
G1 X137.112 Y109.249 E0.01761
G1 X137.077 Y111.562 E0.04351
G1 X137.008 Y112.489 E0.01749
G1 X136.698 Y114.782 E0.04352
G1 X136.571 Y115.481 E0.01336
G1 X136.313 Y116.606 E0.02171
G1 X136.129 Y117.271 E0.01298
G1 X135.415 Y119.47 E0.04349
G1 X135.075 Y120.337 E0.01752
G1 X134.104 Y122.435 E0.04349
G1 X133.66 Y123.26 E0.01762
G1 X132.445 Y125.226 E0.04347
G1 X132.049 Y125.806 E0.01321
G1 X131.355 Y126.731 E0.02175
G1 X130.912 Y127.27 E0.01312
G1 X129.364 Y128.989 E0.04351
G1 X128.874 Y129.486 E0.01313
G1 X128.026 Y130.273 E0.02176
G1 X127.49 Y130.727 E0.01321
G1 X125.662 Y132.14 E0.04346
G1 X124.894 Y132.664 E0.01749
G1 X122.91 Y133.85 E0.04348
G1 X122.08 Y134.281 E0.01759
G1 X119.968 Y135.221 E0.04349
G1 X119.092 Y135.549 E0.0176
G1 X116.884 Y136.229 E0.04346
G1 X115.984 Y136.449 E0.01743
G1 X113.708 Y136.863 E0.04352
G1 X112.781 Y136.975 E0.01756
G1 X110.473 Y137.114 E0.04349
G1 X109.535 Y137.114 E0.01764
G1 X107.228 Y136.975 E0.04347
G1 X106.301 Y136.863 E0.01756
G1 X104.025 Y136.449 E0.04352
G1 X103.125 Y136.229 E0.01743
G1 X100.917 Y135.549 E0.04346
G1 X100.041 Y135.221 E0.0176
G1 X97.929 Y134.281 E0.04349
G1 X97.099 Y133.85 E0.01759
G1 X95.115 Y132.664 E0.04348
G1 X94.347 Y132.14 E0.01749
G1 X92.519 Y130.727 E0.04346
G1 X91.983 Y130.273 E0.01321
G1 X91.134 Y129.485 E0.02179
G1 X90.805 Y129.161 E0.00869
G1 X90.005 Y128.325 E0.02177
G1 X89.542 Y127.795 E0.01324
G1 X88.101 Y125.988 E0.04348
G1 X87.564 Y125.226 E0.01754
G1 X86.349 Y123.26 E0.04347
G1 X85.905 Y122.435 E0.01762
G1 X84.934 Y120.337 E0.04349
G1 X84.594 Y119.47 E0.01752
G1 X83.88 Y117.271 E0.04349
G1 X83.696 Y116.606 E0.01298
G1 X83.438 Y115.481 E0.02171
G1 X83.311 Y114.782 E0.01336
G1 X83.001 Y112.489 E0.04352
G1 X82.932 Y111.562 E0.01749
G1 X82.897 Y109.251 E0.04348
G1 X82.939 Y108.317 E0.01759
G1 X83.181 Y106.017 E0.0435
G1 X83.286 Y105.323 E0.0132
G1 X83.51 Y104.188 E0.02176
G1 X83.613 Y103.735 E0.00874
G1 X83.904 Y102.616 E0.02175
G1 X84.11 Y101.948 E0.01315
G1 X84.89 Y99.771 E0.0435
G1 X85.257 Y98.912 E0.01757
G1 X86.29 Y96.847 E0.04343
G1 X86.754 Y96.044 E0.01745
G1 X88.027 Y94.113 E0.04351
G1 X88.59 Y93.361 E0.01767
G1 X90.085 Y91.598 E0.04348
G1 X90.73 Y90.924 E0.01755
G0 F3600 X91.002 Y91.217
G1 F1800 X92.696 Y89.646 E0.04346
G1 X93.377 Y89.086 E0.01658
G1 X95.248 Y87.726 E0.04351
G1 X95.997 Y87.248 E0.01671
G1 X98.016 Y86.123 E0.04348
G1 X98.809 Y85.741 E0.01656
G1 X100.949 Y84.863 E0.04351
G1 X101.788 Y84.576 E0.01668
G1 X104.015 Y83.961 E0.04346
G1 X104.668 Y83.812 E0.0126
G1 X105.807 Y83.606 E0.02177
G1 X106.461 Y83.518 E0.01241
G1 X108.763 Y83.311 E0.04348
G1 X109.647 Y83.284 E0.01664
G1 X111.959 Y83.353 E0.04351
G1 X112.842 Y83.433 E0.01668
G1 X115.128 Y83.778 E0.04349
G1 X115.78 Y83.906 E0.0125
G1 X116.902 Y84.18 E0.02173
G1 X117.536 Y84.366 E0.01243
G1 X119.725 Y85.113 E0.04351
G1 X120.547 Y85.449 E0.0167
G1 X122.631 Y86.453 E0.04351
G1 X123.402 Y86.884 E0.01662
G1 X125.348 Y88.127 E0.04344
G1 X126.062 Y88.645 E0.01659
G1 X127.848 Y90.112 E0.04348
G1 X128.504 Y90.72 E0.01682
G1 X130.1 Y92.392 E0.04348
G1 X130.666 Y93.061 E0.01648
G1 X132.054 Y94.911 E0.04351
G1 X132.545 Y95.654 E0.01675
G1 X133.7 Y97.656 E0.04348
G1 X134.094 Y98.444 E0.01657
G1 X135.003 Y100.569 E0.04348
G1 X135.301 Y101.402 E0.01664
G1 X135.95 Y103.621 E0.04349
G1 X136.109 Y104.27 E0.01257
G1 X136.332 Y105.404 E0.02174
G1 X136.43 Y106.057 E0.01242
G1 X136.672 Y108.356 E0.04348
G1 X136.712 Y109.243 E0.0167
G1 X136.677 Y111.556 E0.04351
G1 X136.611 Y112.435 E0.01658
G1 X136.301 Y114.728 E0.04352
G1 X136.181 Y115.391 E0.01267
G1 X135.923 Y116.516 E0.02171
G1 X135.748 Y117.147 E0.01232
G1 X135.034 Y119.346 E0.04349
G1 X134.712 Y120.169 E0.01662
G1 X133.741 Y122.267 E0.04349
G1 X133.32 Y123.049 E0.01671
G1 X132.105 Y125.015 E0.04347
G1 X131.729 Y125.566 E0.01255
G1 X131.035 Y126.491 E0.02175
G1 X130.615 Y127.002 E0.01244
G1 X129.067 Y128.721 E0.04351
G1 X128.602 Y129.193 E0.01246
G1 X127.754 Y129.98 E0.02176
G1 X127.246 Y130.411 E0.01253
G1 X125.418 Y131.824 E0.04346
G1 X124.689 Y132.321 E0.0166
G1 X122.705 Y133.507 E0.04348
G1 X121.917 Y133.916 E0.0167
G1 X119.805 Y134.856 E0.04349
G1 X118.974 Y135.167 E0.01669
G1 X116.766 Y135.847 E0.04346
G1 X115.912 Y136.056 E0.01654
G1 X113.636 Y136.47 E0.04352
G1 X112.757 Y136.576 E0.01665
G1 X110.449 Y136.715 E0.04349
G1 X109.559 Y136.715 E0.01674
G1 X107.252 Y136.576 E0.04347
G1 X106.373 Y136.47 E0.01665
G1 X104.097 Y136.056 E0.04352
G1 X103.243 Y135.847 E0.01654
G1 X101.035 Y135.167 E0.04346
G1 X100.204 Y134.856 E0.01669
G1 X98.092 Y133.916 E0.04349
G1 X97.304 Y133.507 E0.0167
G1 X95.32 Y132.321 E0.04348
G1 X94.591 Y131.824 E0.0166
G1 X92.763 Y130.411 E0.04346
G1 X92.255 Y129.98 E0.01253
G1 X91.406 Y129.192 E0.02179
G1 X91.094 Y128.884 E0.00825
G1 X90.294 Y128.048 E0.02177
G1 X89.854 Y127.546 E0.01256
G1 X88.413 Y125.739 E0.04348
G1 X87.904 Y125.015 E0.01665
G1 X86.689 Y123.049 E0.04347
G1 X86.268 Y122.267 E0.01671
G1 X85.297 Y120.169 E0.04349
G1 X84.975 Y119.346 E0.01662
G1 X84.261 Y117.147 E0.04349
G1 X84.086 Y116.516 E0.01232
G1 X83.828 Y115.391 E0.02171
G1 X83.708 Y114.728 E0.01267
G1 X83.398 Y112.435 E0.04352
G1 X83.332 Y111.556 E0.01658
G1 X83.297 Y109.245 E0.04348
G1 X83.337 Y108.359 E0.01668
G1 X83.579 Y106.059 E0.0435
G1 X83.678 Y105.4 E0.01254
G1 X83.902 Y104.265 E0.02176
G1 X84 Y103.836 E0.00828
G1 X84.291 Y102.717 E0.02175
G1 X84.487 Y102.083 E0.01248
G1 X85.267 Y99.906 E0.0435
G1 X85.615 Y99.091 E0.01667
G1 X86.648 Y97.026 E0.04343
G1 X87.088 Y96.264 E0.01655
G1 X88.361 Y94.333 E0.04351
G1 X88.895 Y93.62 E0.01676
G1 X90.39 Y91.857 E0.04348
G1 X91.002 Y91.217 E0.01666
G0 F3600 X91.274 Y91.51
G1 F1800 X92.968 Y89.939 E0.04346
G1 X93.612 Y89.41 E0.01568
G1 X95.483 Y88.05 E0.04351
G1 X96.192 Y87.597 E0.01583
G1 X98.211 Y86.472 E0.04348
G1 X98.961 Y86.111 E0.01566
G1 X101.101 Y85.233 E0.04351
G1 X101.895 Y84.962 E0.01578
G1 X104.122 Y84.347 E0.04346
G1 X104.739 Y84.206 E0.01191
G1 X105.878 Y84 E0.02177
G1 X106.497 Y83.916 E0.01175
G1 X108.799 Y83.709 E0.04348
G1 X109.635 Y83.684 E0.01573
G1 X111.947 Y83.753 E0.04351
G1 X112.783 Y83.828 E0.01579
G1 X115.069 Y84.173 E0.04349
G1 X115.685 Y84.295 E0.01181
G1 X116.807 Y84.569 E0.02173
G1 X117.407 Y84.744 E0.01176
G1 X119.596 Y85.491 E0.04351
G1 X120.373 Y85.81 E0.0158
G1 X122.457 Y86.814 E0.04351
G1 X123.187 Y87.221 E0.01572
G1 X125.133 Y88.464 E0.04344
G1 X125.808 Y88.954 E0.01569
G1 X127.594 Y90.421 E0.04348
G1 X128.214 Y90.997 E0.01592
G1 X129.81 Y92.669 E0.04348
G1 X130.346 Y93.301 E0.01559
G1 X131.734 Y95.151 E0.04351
G1 X132.198 Y95.854 E0.01584
G1 X133.353 Y97.856 E0.04348
G1 X133.726 Y98.601 E0.01567
G1 X134.635 Y100.726 E0.04348
G1 X134.918 Y101.514 E0.01575
G1 X135.567 Y103.733 E0.04349
G1 X135.716 Y104.347 E0.01188
G1 X135.939 Y105.481 E0.02174
G1 X136.033 Y106.099 E0.01176
G1 X136.275 Y108.398 E0.04348
G1 X136.312 Y109.237 E0.0158
G1 X136.277 Y111.55 E0.04351
G1 X136.215 Y112.382 E0.01569
G1 X135.905 Y114.675 E0.04352
G1 X135.791 Y115.302 E0.01199
G1 X135.533 Y116.427 E0.02171
G1 X135.368 Y117.024 E0.01165
G1 X134.654 Y119.223 E0.04349
G1 X134.349 Y120.001 E0.01572
G1 X133.378 Y122.099 E0.04349
G1 X132.98 Y122.839 E0.01581
G1 X131.765 Y124.805 E0.04347
G1 X131.409 Y125.326 E0.01187
G1 X130.715 Y126.251 E0.02175
G1 X130.318 Y126.734 E0.01176
G1 X128.77 Y128.453 E0.04351
G1 X128.33 Y128.9 E0.0118
G1 X127.482 Y129.687 E0.02176
G1 X127.001 Y130.094 E0.01185
G1 X125.173 Y131.507 E0.04346
G1 X124.484 Y131.977 E0.01569
G1 X122.5 Y133.163 E0.04348
G1 X121.754 Y133.55 E0.01581
G1 X119.642 Y134.49 E0.04349
G1 X118.856 Y134.785 E0.01579
G1 X116.648 Y135.465 E0.04346
G1 X115.841 Y135.662 E0.01563
G1 X113.565 Y136.076 E0.04352
G1 X112.733 Y136.176 E0.01576
G1 X110.425 Y136.315 E0.04349
G1 X109.583 Y136.315 E0.01584
G1 X107.276 Y136.176 E0.04347
G1 X106.444 Y136.076 E0.01576
G1 X104.168 Y135.662 E0.04352
G1 X103.361 Y135.465 E0.01563
G1 X101.153 Y134.785 E0.04346
G1 X100.367 Y134.49 E0.01579
G1 X98.255 Y133.55 E0.04349
G1 X97.509 Y133.163 E0.01581
G1 X95.525 Y131.977 E0.04348
G1 X94.836 Y131.507 E0.01569
G1 X93.008 Y130.094 E0.04346
G1 X92.527 Y129.687 E0.01185
G1 X91.678 Y128.899 E0.02179
G1 X91.383 Y128.608 E0.00779
G1 X90.583 Y127.772 E0.02177
G1 X90.167 Y127.296 E0.01189
G1 X88.726 Y125.489 E0.04348
G1 X88.244 Y124.805 E0.01574
G1 X87.029 Y122.839 E0.04347
G1 X86.631 Y122.099 E0.01581
G1 X85.66 Y120.001 E0.04349
G1 X85.355 Y119.223 E0.01572
G1 X84.641 Y117.024 E0.04349
G1 X84.476 Y116.427 E0.01165
G1 X84.218 Y115.302 E0.02171
G1 X84.104 Y114.675 E0.01199
G1 X83.794 Y112.382 E0.04352
G1 X83.732 Y111.55 E0.01569
G1 X83.697 Y109.239 E0.04348
G1 X83.734 Y108.401 E0.01578
G1 X83.976 Y106.101 E0.0435
G1 X84.07 Y105.478 E0.01185
G1 X84.294 Y104.343 E0.02176
G1 X84.387 Y103.936 E0.00785
G1 X84.678 Y102.817 E0.02175
G1 X84.863 Y102.218 E0.01179
G1 X85.643 Y100.041 E0.0435
G1 X85.973 Y99.27 E0.01578
G1 X87.006 Y97.205 E0.04343
G1 X87.422 Y96.484 E0.01566
G1 X88.695 Y94.553 E0.04351
G1 X89.2 Y93.879 E0.01584
G1 X90.695 Y92.116 E0.04348
G1 X91.274 Y91.51 E0.01577
G0 F3600 X91.546 Y91.804
G1 F1800 X93.24 Y90.233 E0.04346
G1 X93.847 Y89.733 E0.01479
G1 X95.718 Y88.373 E0.04351
G1 X96.386 Y87.947 E0.0149
G1 X98.405 Y86.822 E0.04348
G1 X99.113 Y86.481 E0.01478
G1 X101.253 Y85.603 E0.04351
G1 X102.001 Y85.347 E0.01487
G1 X104.228 Y84.732 E0.04346
G1 X104.81 Y84.599 E0.01123
G1 X105.949 Y84.393 E0.02177
G1 X106.533 Y84.315 E0.01108
G1 X108.835 Y84.108 E0.04348
G1 X109.623 Y84.084 E0.01483
G1 X111.935 Y84.153 E0.04351
G1 X112.723 Y84.224 E0.01488
G1 X115.009 Y84.569 E0.04349
G1 X115.59 Y84.683 E0.01114
G1 X116.712 Y84.957 E0.02173
G1 X117.278 Y85.123 E0.0111
G1 X119.467 Y85.87 E0.04351
G1 X120.2 Y86.17 E0.0149
G1 X122.284 Y87.174 E0.04351
G1 X122.972 Y87.558 E0.01482
G1 X124.918 Y88.801 E0.04344
G1 X125.554 Y89.263 E0.01479
G1 X127.34 Y90.73 E0.04348
G1 X127.925 Y91.273 E0.01501
G1 X129.521 Y92.945 E0.04348
G1 X130.026 Y93.541 E0.01469
G1 X131.414 Y95.391 E0.04351
G1 X131.852 Y96.054 E0.01495
G1 X133.007 Y98.056 E0.04348
G1 X133.358 Y98.758 E0.01476
G1 X134.267 Y100.883 E0.04348
G1 X134.534 Y101.626 E0.01485
G1 X135.183 Y103.845 E0.04349
G1 X135.324 Y104.425 E0.01123
G1 X135.547 Y105.559 E0.02174
G1 X135.635 Y106.141 E0.01107
G1 X135.877 Y108.44 E0.04348
G1 X135.912 Y109.231 E0.01489
G1 X135.877 Y111.544 E0.04351
G1 X135.818 Y112.328 E0.01479
G1 X135.508 Y114.621 E0.04352
G1 X135.401 Y115.212 E0.0113
G1 X135.143 Y116.337 E0.02171
G1 X134.987 Y116.9 E0.01099
G1 X134.273 Y119.099 E0.04349
G1 X133.986 Y119.833 E0.01482
G1 X133.015 Y121.931 E0.04349
G1 X132.639 Y122.629 E0.01491
G1 X131.424 Y124.595 E0.04347
G1 X131.089 Y125.086 E0.01118
G1 X130.395 Y126.011 E0.02175
G1 X130.02 Y126.467 E0.01111
G1 X128.472 Y128.186 E0.04351
G1 X128.058 Y128.607 E0.01111
G1 X127.21 Y129.394 E0.02176
G1 X126.756 Y129.778 E0.01119
G1 X124.928 Y131.191 E0.04346
G1 X124.278 Y131.634 E0.0148
G1 X122.294 Y132.82 E0.04348
G1 X121.592 Y133.185 E0.01488
G1 X119.48 Y134.125 E0.04349
G1 X118.739 Y134.403 E0.01489
G1 X116.531 Y135.083 E0.04346
G1 X115.769 Y135.268 E0.01475
G1 X113.493 Y135.682 E0.04352
G1 X112.709 Y135.777 E0.01486
G1 X110.401 Y135.916 E0.04349
G1 X109.607 Y135.916 E0.01494
G1 X107.3 Y135.777 E0.04347
G1 X106.516 Y135.682 E0.01486
G1 X104.24 Y135.268 E0.04352
G1 X103.478 Y135.083 E0.01475
G1 X101.27 Y134.403 E0.04346
G1 X100.529 Y134.125 E0.01489
G1 X98.417 Y133.185 E0.04349
G1 X97.715 Y132.82 E0.01488
G1 X95.731 Y131.634 E0.04348
G1 X95.081 Y131.191 E0.0148
G1 X93.253 Y129.778 E0.04346
G1 X92.799 Y129.393 E0.0112
G1 X91.95 Y128.605 E0.02179
G1 X91.672 Y128.331 E0.00734
G1 X90.872 Y127.495 E0.02177
G1 X90.48 Y127.047 E0.0112
G1 X89.039 Y125.24 E0.04348
G1 X88.585 Y124.595 E0.01484
G1 X87.37 Y122.629 E0.04347
G1 X86.994 Y121.931 E0.01491
G1 X86.023 Y119.833 E0.04349
G1 X85.736 Y119.099 E0.01482
G1 X85.022 Y116.9 E0.04349
G1 X84.866 Y116.337 E0.01099
G1 X84.608 Y115.212 E0.02171
G1 X84.501 Y114.621 E0.0113
G1 X84.191 Y112.328 E0.04352
G1 X84.132 Y111.544 E0.01479
G1 X84.097 Y109.233 E0.04348
G1 X84.132 Y108.442 E0.01489
G1 X84.374 Y106.142 E0.0435
G1 X84.463 Y105.555 E0.01117
G1 X84.687 Y104.42 E0.02176
G1 X84.774 Y104.037 E0.00739
G1 X85.065 Y102.918 E0.02175
G1 X85.24 Y102.353 E0.01113
G1 X86.02 Y100.176 E0.0435
G1 X86.33 Y99.449 E0.01487
G1 X87.363 Y97.384 E0.04343
G1 X87.756 Y96.704 E0.01477
G1 X89.029 Y94.773 E0.04351
G1 X89.505 Y94.137 E0.01494
G1 X91 Y92.374 E0.04348
G1 X91.546 Y91.804 E0.01485
G0 F3600 X91.818 Y92.097
G1 F1800 X93.512 Y90.526 E0.04346
G1 X94.083 Y90.057 E0.0139
G1 X95.954 Y88.697 E0.04351
G1 X96.581 Y88.296 E0.014
G1 X98.6 Y87.171 E0.04348
G1 X99.265 Y86.851 E0.01388
G1 X101.405 Y85.973 E0.04351
G1 X102.108 Y85.733 E0.01397
G1 X104.335 Y85.118 E0.04346
G1 X104.882 Y84.993 E0.01055
G1 X106.021 Y84.787 E0.02177
G1 X106.569 Y84.713 E0.0104
G1 X108.871 Y84.506 E0.04348
G1 X109.611 Y84.484 E0.01393
G1 X111.923 Y84.553 E0.04351
G1 X112.663 Y84.619 E0.01398
G1 X114.949 Y84.964 E0.04349
G1 X115.495 Y85.072 E0.01047
G1 X116.617 Y85.346 E0.02173
G1 X117.148 Y85.501 E0.01041
G1 X119.337 Y86.248 E0.04351
G1 X120.026 Y86.53 E0.014
G1 X122.11 Y87.534 E0.04351
G1 X122.756 Y87.895 E0.01392
G1 X124.702 Y89.138 E0.04344
G1 X125.3 Y89.572 E0.0139
G1 X127.086 Y91.039 E0.04348
G1 X127.636 Y91.549 E0.01411
G1 X129.232 Y93.221 E0.04348
G1 X129.706 Y93.781 E0.0138
G1 X131.094 Y95.631 E0.04351
G1 X131.505 Y96.254 E0.01404
G1 X132.66 Y98.256 E0.04348
G1 X132.99 Y98.916 E0.01388
G1 X133.899 Y101.041 E0.04348
G1 X134.15 Y101.739 E0.01395
G1 X134.799 Y103.958 E0.04349
G1 X134.931 Y104.502 E0.01053
G1 X135.154 Y105.636 E0.02174
G1 X135.237 Y106.183 E0.01041
G1 X135.479 Y108.482 E0.04348
G1 X135.512 Y109.225 E0.01399
G1 X135.477 Y111.538 E0.04351
G1 X135.422 Y112.275 E0.0139
G1 X135.112 Y114.568 E0.04352
G1 X135.011 Y115.123 E0.01061
G1 X134.753 Y116.248 E0.02171
G1 X134.607 Y116.777 E0.01032
G1 X133.893 Y118.976 E0.04349
G1 X133.623 Y119.665 E0.01392
G1 X132.652 Y121.763 E0.04349
G1 X132.299 Y122.418 E0.014
G1 X131.084 Y124.384 E0.04347
G1 X130.769 Y124.846 E0.01052
G1 X130.075 Y125.771 E0.02175
G1 X129.723 Y126.199 E0.01042
G1 X128.175 Y127.918 E0.04351
G1 X127.786 Y128.313 E0.01043
